X:1
T:Um Mitternacht
T:Josef Rheinberger
T:Text: Eduard Mörike
T:Um Mitternacht
T:Nr. 3 aus Fünf Lieder, Op. 31
T:CPDL - Creative Commons Attribution Non Commercial 3.0
T:CPDL - Creative Commons Attribution Non Commercial 3.0
T:CPDL - Creative Commons Attribution Non Commercial 3.0
T:CPDL - Creative Commons Attribution Non Commercial 3.0
C:Josef Rheinberger
Z:Eduard Mörike
Z:CPDL - Creative Commons Attribution Non Commercial 3.0
%%score [ 1 2 3 4 ]
L:1/8
Q:1/4=56
M:3/4
K:C
V:1 treble nm="S"
V:2 treble nm="A"
V:3 treble-8 nm="T"
V:4 bass nm="B"
V:1
!pp!"^Langsam" G2 | A4 G2 | G>G G2 G2 | G6 |!<(! G2 A2 _B2 | D>D!<)! (d4- | d3 c)!>(! =BA!>)! | %7
w: Be-|däch- tig|stieg die Nacht ans|Land,|lehnt träu- mend|an der Ber-|* * ge _|
 (A2 G2) z G |!<(! GA Bc de!<)! |!>(! e>d d3!>)! A |!<(! AB cd ef!<)! | f>e e3!f! !^!e | %12
w: Wand, _ ihr|Au- ge sieht die gold- ne|Waa- ge nun der|Zeit in glei- chen Scha- len|stil- le ruhn; und|
 !^!f!^!c !^!_e2 !^!d2- | dd _ed/d/"^dim." _d2- | d4!p! ^c2 |"^dolce" ^c2 d2 G2 | B2 A2!pp! A2 | %17
w: ke- cker rau- schen|_ die Quel- len her- vor,|_ sie|sin- gen der|Mut- ter, der|
 (B2 c2) F2 |!<(! G4 ^G2 | A2 F2!<)! z!f! A | f3 e/e/ dA/A/ |[Q:1/4=50]"^smorz. e rit." (c3 Bd>c) | %22
w: Nacht, _ ins|Ohr vom|Ta- ge, vom|heu- te ge- we- se- nen|Ta- * * *|
 c4 ||!pp![Q:1/4=56]"^a tempo" G2 | A4 G2 | G>G G2 G2 | G6 | !^!G2 !^!A2 !^!_B2 | D>D!<(! d4- | %29
w: ge.|Das|ur- alt|al- te Schlum- mer-|lied,|sie ach- tet's|nicht, sie ist|
 d3!<)! c!>(! =BA!>)! | (A2 G2) z!p! G |!<(! GA Bc de!<)! | e>d!>(! d3 A!>)! |!<(! AB cd ef!<)! | %34
w: _ _ es _|müd; _ ihr|klingt des Him- mels Bläu- e|sü- ßer noch, der|flücht- gen Stun- den gleich- ge-|
 f>e | e3!f! e | fc/c/ _e2 d2- | dd _ed/d/ _d2- |"^smorz." d4!p! ^c2 |"^dolce" ^c2 d2 G2 | %40
w: schwung- nes|Joch. Doch|im- mer be- hal- ten|_ die Quel- len das Wort,|_ es|sin- gen die|
 B2 A2!pp! A2 | B2 c2 =F2 |!<(! G4 ^G2 | A2 F2!<)! z!f! A | !^!f3 e/e/ dA/"^dim."A/ | %45
w: Was- ser im|Schla- fe noch|fort vom|Ta- ge, vom|heu- te ge- we- se- nen|
[Q:1/4=50]"^rit." (c3 Bd>c) | !fermata!c4 |] %47
w: Ta- * * *|ge.|
V:2
!pp! G2 | A4 G2 | F>F G2 D2 | (F2 E4) |!<(! _E2 E2 E2 | D4!<)! D2 | =E4!>(! ^F2!>)! | =F4 z F | %8
w: ||||||||
 E2 E2 z E |!<(! FG A!<)!G F!>(!E | E>!>)!D D3 A | _BA ^FG cB | A2 z!f! !^!A !^!_B!^!F | %13
w: Au- ge ihr|Au- ge sieht die gold- ne|Waa- ge nun der|Zeit in glei- chen Scha- len|ruhn; und ke- cker|
 _A2 G3!<(! G!<)! | _B!>(!_A/A/ G3!>)!!p! G |"^dolce" G2 G3 G | ^F2 F3!pp! F | F4- FF |!<(! E4 E2 | %19
w: rau- schen die|Quel- len her- vor, sie|sin- gen der|Mut- ter, der|Nacht, _ ins|Ohr vom|
 F2 F2!<)! z!f! A | A3 G/G/ FE/E/ | (E2 =F4) | E4 ||!pp! G2 | A4 G2 | F>F G2 D2 | (F2 E4) | %27
w: Ta- ge, vom|heu- te ge- we- se- nen|Ta- *|ge.|Das|ur- alt|al- te Schlum- mer-|lied, _|
 !^!_E2 !^!E2 !^!E2 | D4!<(! D2 | =E4!<)! ^F2 |!>(! =F4!>)! z!p! F | E4 z E | %32
w: sie ach- tet's|nicht, sie|ist es|müd; ihr|klingt, ihr|
!<(! FG A!<)!G!>(! FE!>)! | E>D D3 A | _BA | ^FG c_B | A2 z!f! A _BF/F/ | _A2 G3 G | %38
w: klingt des Him- mels Bläu- e|sü- ßer noch, der|Stun- den|gleich- ge- schwung- nes|Joch. Doch im- mer be-|hal- ten die|
 _B_A/A/!>(! G3!>)!!p! G | G2 G3 G | ^F2 F3!pp! F | =F2 F3 F |!<(! E4 E2 | F2 F2!<)! z!f! A | %44
w: Quel- len das Wort, es|sin- gen die|Was- ser im|Schla- fe noch|fort vom|Ta- ge, vom|
 !^!A3 G/G/ FE/"^dim."E/ | (E2 =F4) | !fermata!E4 |] %47
w: heu- te ge- we- se- nen|Ta- *|ge.|
V:3
!pp! G2 | A4 G2 | G>G G2 G2 | G6 |!<(! G2 A2 _B2 | D4!<)! =B2 | (c2 A2)!>(! dc!>)! | B4 z B | %8
w: Be-|däch- tig|stieg die Nacht ans|Land,|lehnt träu- mend|an der|Ber- * ge _|Wand, ihr|
 c2 c2 z c |!<(! cc c!<)!c c!>(!c | c>!>)!c c3 c | cc cc cc | c2 z!f! c _BB | _B2 B3!<(! B!<)! | %14
w: ||||||
 _d!>(!c/c/ _B3!>)!!p! B |"^dolce" =B2 B3 B | c2 c3!pp! c | A4- AA |!<(! _B4 B2 | %19
w: |||||
 A2 A2!<)! z!f! A | A3 A/A/ Ac/c/ | (c2 d2 B2) | G4 ||!pp! G2 | A4 G2 | G>G G2 G2 | G6 | %27
w: ||||Das|ur- alt|al- te Schlum- mer-|lied,|
 !^!G2 !^!A2 !^!_B2 | D4!<(! =B2 | (c2 A2)!<)! dc |!>(! B4!>)! z!p! B | c4 z c | %32
w: sie ach- tet's|nicht, sie|ist _ es _|müd; ihr|klingt, ihr|
!<(! cc c!<)!c!>(! cc!>)! | c>c c3!<(! c | cc!<)! | cc cc | c2 z!f! c _BB/B/ | _B2 B3 B | %38
w: klingt des Him- mels Bläu- e|sü- ßer noch, der|Stun- den|gleich- ge- schwung- nes|Joch. Doch im- mer be-|hal- ten die|
!>(! _dc/c/ _B3!>)!!p! B | =B2 B3 B | c2 c3!pp! c | A2 A3 A |!<(! _B4 B2 | A2 A2!<)! z!f! A | %44
w: Quel- len das Wort, es|sin- gen die|Was- ser im|Schla- fe noch|fort vom|Ta- ge, vom|
 !^!A3 A/A/ Ac/"^dim."c/ | (c2 d2 B2) | !fermata!G4 |] %47
w: heu- te ge- we- se- nen|Ta- * *|ge.|
V:4
!pp! G,2 | A,4 G,2 | F,>F, G,2 D,2 | (F,2 E,4) |!<(! _E,2 E,2 E,2 | D,4!<)! D,2 | D,4!>(! D,2!>)! | %7
 G,,4 z2 | z2 z2 z C, |!<(! D,E, F,!<)!G, A,!>(!G, | F,>!>)!F, F,3 F, | G,A, C_B, A,G, | %12
 F,2 z!f! F, _B,B, | _B,2 _E,3!<(! E,!<)! | _E,!>(!E,/E,/ E,3!>)!!p! E, |"^dolce" D,2 D,3 D, | %16
 D,2 D,3!pp! D, | C,4- C,C, |!<(! C,4 C,2 | F,2 F,2!<)! z!f! A, | D,3 E,/E,/ F,^F,/F,/ | %21
 (G,4 G,,2) | C,4 ||!pp! G,2 | A,4 G,2 | F,>F, G,2 D,2 | (F,2 E,4) | !^!_E,2 !^!E,2 !^!E,2 | %28
 D,4!<(! D,2 | D,4!<)! D,2 |!>(! G,,4!>)! z2 | z2 z2 z C, |!<(! D,E, F,!<)!G,!>(! A,G,!>)! | %33
 F,>F, F,3!<(! F, | G,A,!<)! | C_B, A,G, | F,2 z!f! F, _B,B,/B,/ | _B,2 _E,3 E, | %38
!>(! _E,E,/E,/ E,3!>)!!p! E, | D,2 D,3 D, | D,2 D,3!pp! D, | C,2 C,3 C, |!<(! C,4 C,2 | %43
 F,2 F,2!<)! z!f! A, | !^!D,3 E,/E,/ F,^F,/"^dim."F,/ | (G,4 G,,2) | !fermata!C,4 |] %47

